build/img/sprites/CaretDoubleLeft.svg

<svg width="20" height="21" viewBox="0 0 20 21" fill="none" xmlns="http://www.w3.org/2000/svg">
<path d="M3.93232 16.5981C3.87425 16.6591 3.82819 16.7314 3.79676 16.8111C3.76534 16.8908 3.74916 16.9761 3.74916 17.0624C3.74916 17.1486 3.76534 17.234 3.79676 17.3137C3.82819 17.3933 3.87425 17.4657 3.93232 17.5267C3.99039 17.5876 4.05933 17.636 4.1352 17.669C4.21107 17.702 4.29239 17.719 4.37451 17.719C4.45663 17.719 4.53795 17.702 4.61382 17.669C4.68969 17.636 4.75863 17.5876 4.8167 17.5267L11.0667 10.9642C11.1248 10.9032 11.1709 10.8308 11.2024 10.7512C11.2338 10.6715 11.25 10.5861 11.25 10.4999C11.25 10.4136 11.2338 10.3282 11.2024 10.2486C11.1709 10.1689 11.1248 10.0965 11.0667 10.0356L4.8167 3.47308C4.69942 3.34994 4.54036 3.28076 4.37451 3.28076C4.20866 3.28076 4.0496 3.34994 3.93232 3.47308C3.81505 3.59622 3.74916 3.76323 3.74916 3.93738C3.74916 4.11152 3.81505 4.27853 3.93232 4.40167L9.74091 10.4999L3.93232 16.5981ZM15.9909 10.4999L10.1823 4.40167C10.065 4.27853 9.99916 4.11152 9.99916 3.93738C9.99916 3.76323 10.065 3.59622 10.1823 3.47308C10.2996 3.34994 10.4587 3.28076 10.6245 3.28076C10.7904 3.28076 10.9494 3.34994 11.0667 3.47308L17.3167 10.0356C17.3748 10.0965 17.4209 10.1689 17.4524 10.2486C17.4838 10.3282 17.5 10.4136 17.5 10.4999C17.5 10.5861 17.4838 10.6715 17.4524 10.7512C17.4209 10.8308 17.3748 10.9032 17.3167 10.9642L11.0667 17.5267C11.0086 17.5876 10.9397 17.636 10.8638 17.669C10.7879 17.702 10.7066 17.719 10.6245 17.719C10.5424 17.719 10.4611 17.702 10.3852 17.669C10.3093 17.636 10.2404 17.5876 10.1823 17.5267C10.1243 17.4657 10.0782 17.3933 10.0468 17.3137C10.0153 17.234 9.99916 17.1486 9.99916 17.0624C9.99916 16.9761 10.0153 16.8908 10.0468 16.8111C10.0782 16.7314 10.1243 16.6591 10.1823 16.5981L15.9909 10.4999Z" fill="currentColor"/>
</svg>

<svg width="20" height="21" viewBox="0 0 20 21" fill="none" xmlns="http://www.w3.org/2000/svg"><path d="M3.932 16.598a.66.66 0 00-.183.464.686.686 0 00.183.465.625.625 0 00.443.192.6.6 0 00.442-.192l6.25-6.563a.662.662 0 00.183-.464.685.685 0 00-.183-.464l-6.25-6.563a.61.61 0 00-.442-.192.61.61 0 00-.443.192.674.674 0 00-.183.464c0 .175.066.342.183.465L9.741 10.5l-5.809 6.098zM15.991 10.5l-5.809-6.098A.674.674 0 0110 3.937c0-.174.066-.34.183-.464a.61.61 0 01.442-.192.61.61 0 01.443.192l6.25 6.563a.66.66 0 01.183.464.686.686 0 01-.183.464l-6.25 6.563a.625.625 0 01-.443.192.6.6 0 01-.442-.192.661.661 0 01-.183-.465.684.684 0 01.183-.464l5.809-6.098z" fill="currentColor"/></svg>
